X:262
T:Smith's Chapel
C:Chris Thile (Thile & Grier, Prism Coffehouse)
N:TablEdited by Steve Keating
L:1/8
Q:1/4=300
M:4/4
K:A
"First Break"z2 =c^c d^d e=g | "A"a2 A2 a2 Ae | a=g ed =c^c A=G | "D"AF ED EF Ae | 
=c2 ze A2 =ga | "A"A2 bc' a=g e^d | =c^c A=G A^A Be | "E"dB A=G ^GE ^D=D | z2 DD DE FD | 
"A"EF =GA Bd zc | d^d ef =ga =f^f | "D"df ab d'a =c'b | "(D# dim)"a=g =f^f d^d ea | 
"A"ed =cA "(F#)"c^c A^A | "E""(B)"BA =G^G EF =G^G | "A"A^D EA ED =DC | A,2 A,=G, A,^A, B,=A, | 
"G"=G,2 A,B, DF =GA | B=G AB d=g fd | "A"fd =fd ed B=c | ca g=g fd fd | "G"fa bf ab =c'A | 
ab a2 zf ze | "B"B^d fb fd BA | "E"FG Bd ef =g^g | "A"aA =gf ed eg | b=g eg bd' bg | 
"D"bd' f'd' f'd' e'A | "(D# dim)"d'A =c'/^c'/z ae =gf | "A"ed =c^c "(F#)"A^A BA | 
"E""(B)"B=G ^G^D ED =D=C | "A"CA =GE =c^c d^d | ed e=g eg bA | d'e' z6 | z6 =c'^c' | 
"Second Break"a2 =c'^c' a2 e'/d'/z | =c'^c' a2 =g2 ef | d2 d=c Ac AG | =F^F D2 zA D^D | 
EA E^D =DC A,B, | CD EF =GA BG | A=G (3EGA (3Bde =g^g | ed ee =g^g aA | =gf ed eg bg | 
e=g bd' =c'^c' ae | =ga ed =cA dA | =c^c =c^c dA =c/^c/z | =c^c AD =c^c =c^c | 
dA =c2 c^c AB | z=G E^D =DC A,B, | CD E=F ^F=G AB | z2 zD F=G Bd | DD F=G B=g fd | 
e=g bg ed =c^c | A=G E=F ^FA GD | B,A, =G,A, B,D EF | =GA ^AB c^d z2 | f^d fd' ^d'f ab | 
ga bg e=g ^ge' | =c'^c' a4 ef | =gf ed =c^c A=G | A=G AB df ab | d'f' a'b' d''A b'=c'' | 
a'4 ef =gf | ed =c^c A=G E^D | D=C A,=G E=c AG | A=c d^d z2 (3e=g^g | a8 | z4 ze =g^g | 
"Third Break"a2 A2 =g^g a2 | Ae a^a b=c' bc' | c'2 =c'^c' d'2 d'/c'/A | ea ^ab =ae =g^g | 
a2 a=g ef ed | ed =c^c A^A Be | dB =g^g ed B^A | AG E=F ^F=G ^GA | E=F ^F=G ^GA E=F | 
F=G ^GA ^AB =c^c | dD =cB A=G Ac | e=c A=G =F^F D^D | EA E^D =DC A,B, | =G,^G, EG, EG eG | 
eg e'g d'g =c'^c' | a4 ze ef | =gB dg ab bb | be ba =ga bg | ab c'd' c'c' c'c' | 
c'e c'b ab c'a | ba =g2 ga bg | a=g fd ec ^df | ^df bf ^af =af | =g^g a^a bg e2 | 
z2 =c^c A=c A=G | A=G =c^c =c^c AG | =c^c =c^c A=G f=g | =G=c ^cG B=c DB | ^A=G =AG E^D =DB, | 
B,D EF =GA BG | A=c ^ce de ee | e/a/c' c'c' c'd' ^d'd' | e'8 | z4 z=c zA | "Fourth Break"=c^c =c^c AB A=G | 
A=G EF GB AG | E=F ^FA d2 FA | f2 Bc a2 =gf | ed =c^c ef ab | =c'^c' d'a =c'^c' b=c' | 
c'=c' b^c' b4 | ze ba =g^g ef | =gb gf ed =c^c | e=g ed =c^c AB | A=G E=F ^Fd DF | 
Af D=G eD Fd | DE =c2 c^c A=G | EF =GA BG AB | =c/^c/d ^de =f^f =g^g | a2 A2 ef =gd | 
=gb bg b=c' d'2 | ab d'd' bd' e'=g' | =g'f' e'g' f'e' d'f' | e'd' c'e' d'4 | d'=c' bd' c'b ac' | 
bA a2 =ge g^g | ed BA Bd =g^g | ed e=g e^g e'd' | =c'^c' ac' e'f' a'2 | =g'f' e'd' =c'^c' a^a | 
be' ba =ge ae | =g^g ed BA Bc | df ad' za =c'a | =c'^c' d'b =c'^c' a=g | ed =c^c ea gb | 
a8 | z8 | z8 | 
 

